X:1
T:Gottes Sohn Ist Kommen, 12.12.12
T:Gottes Sohn Ist Kommen, 12.12.12
T:Michael Weisse, 1531
T:Public Domain Courtesy of the Cyber Hymnal™
C:Michael Weisse, 1531
Z:Public Domain
Z:Courtesy of the Cyber Hymnal™
%%score ( 1 2 ) ( 3 4 )
L:1/8
Q:1/4=115
M:4/4
K:F
V:1 treble 
V:2 treble 
V:3 bass 
V:4 bass 
V:1
 [CF]2 [CF]2 [FA]2 [FB]2 | [Ec]4 [Fc]4 | [Fd]2 [Ge]2 [Ff]2 [Gc]2 | (A2 =B2) [Ec]4 | %4
 [FB]2 [CG]2 [CA]2 [DB]2 | (A2 G2) [CF]4 | [CE]2 [DF]2 [EG]2 [FA]2 | ([CE]2 [=B,D]2) C4 | %8
 [CF]2 [CF]2 [DA]2 [DF]2 | (c2 d2) [Fc]4 | F2 [CG]2 [CA]2 [DB]2 | A4 z2 x6 | [A,F]8 |] %13
V:2
 x8 | x8 | x8 | F4 x4 | x8 | C4 x4 | x8 | x4 C4 | x8 | F4 x4 | F2 x6 | C6 (G4 B,2) | x8 |] %13
V:3
 [F,A,]2 [F,A,]2 [F,C]2 [D,B,]2 | [C,G,]4 [F,A,]4 | B,2 [G,B,]2 [A,C]2 [E,C]2 | %3
 ([F,C]2 [D,F,]2) [C,G,]4 | [D,F,]2 [E,G,]2 F,2 [B,,F,]2 | (F,2 E,2) [F,,A,]4 | %6
 [A,,A,]2 [D,A,]2 [C,C]2 [F,C]2 | G,2 [G,,F,]2 [C,E,]4 | [F,A,]2 [F,A,]2 [D,F,]2 [D,A,]2 | %9
 ([A,,F,]2 B,2) [F,A,]4 | [D,A,]2 [E,G,]2 F,2 [B,,F,]2 | (F,4 E,4) x4 | [F,,F,]8 |] %13
V:4
 x8 | x8 | B,2 x6 | x8 | x4 F,2 x2 | C,4 x4 | x8 | G,2 x6 | x8 | x2 (B,,D,) x4 | x4 F,2 x2 | %11
 C,8 x4 | x8 |] %13

